app2/images/star-fill.svg

<svg width="20" height="19" viewBox="0 0 20 19" fill="none" xmlns="http://www.w3.org/2000/svg">
<path d="M9.55173 0.907286C9.73521 0.535927 10.2648 0.535927 10.4483 0.907286L12.9738 6.01882C13.0466 6.16632 13.1874 6.26853 13.3502 6.29216L18.9965 7.1117C19.4068 7.17125 19.5705 7.67553 19.2735 7.96475L15.1885 11.9422C15.0705 12.0571 15.0167 12.2227 15.0445 12.385L16.009 18.0018C16.0791 18.4102 15.6505 18.7218 15.2837 18.5291L10.2325 15.8765C10.0869 15.8001 9.91309 15.8001 9.76753 15.8765L4.7163 18.5291C4.34946 18.7218 3.92093 18.4102 3.99105 18.0018L4.95548 12.385C4.98335 12.2227 4.92949 12.0571 4.81149 11.9422L0.72652 7.96475C0.429483 7.67553 0.593224 7.17125 1.00351 7.1117L6.64978 6.29216C6.81259 6.26853 6.95336 6.16632 7.02623 6.01882L9.55173 0.907286Z" fill="#F8C307"/>
</svg>

<svg width="20" height="19" viewBox="0 0 20 19" fill="none" xmlns="http://www.w3.org/2000/svg"><path d="M9.552.907a.5.5 0 01.896 0l2.526 5.112a.5.5 0 00.376.273l5.647.82a.5.5 0 01.276.853l-4.085 3.977a.5.5 0 00-.144.443l.965 5.617a.5.5 0 01-.725.527l-5.052-2.652a.5.5 0 00-.464 0l-5.052 2.652a.5.5 0 01-.725-.527l.964-5.617a.5.5 0 00-.144-.443L.727 7.965a.5.5 0 01.277-.853l5.646-.82a.5.5 0 00.376-.273L9.552.907z" fill="#F8C307"/></svg>
